X:480
T:Punch in the Dark
R:reel
C:Gerry O'Connor
D:Sen Smyth: The Blue Fiddle
Z:Devin McCabe
M:C|
L:1/8
K:BDor
~B3d cBdc|BdcA FEFB|dcBd cBdB|caag afec|
!~B3d cBdc|BdcA EFAF|D~E3 ABcA|1caag afec:|2caag aecd|
!:eaag aece|acea gbbg|a2ag aece|dcBd cAcd|
!eaag aece|acea gbbg|a2ag aece|1dcBd cAcd:|2dcBd cBdc||
